X: 27588
T: Montbran
R: hornpipe
M: 4/4
K: Dmajor
|:d2 gd B2 dB|~G2 FG D3 d|dBFD FdAF|DFAd ~B2 G2|d2 gd B2 dB|
~G2 FG D3 G|1 GABd gdBd|AGFA GABc:|2 GABd gedB|cAFA G2 FG||
|:EFGA B2 e2|B2 e2 B2 AB|=cBA=c ~B2 AB|=cBAF ~G2 GF|
EFGA B2 e2|B2 e2 B2 AB|AB^cd efga|gfed ~e2 dB:|

